icons/solid/fast-forward.svg

<svg width="24" height="24" viewBox="0 0 24 24" fill="none" xmlns="http://www.w3.org/2000/svg">
<path fill-rule="evenodd" clip-rule="evenodd" d="M21.0667 10.8L14.4 5.79998C13.4111 5.05834 12 5.76391 12 6.99998V9.99998L6.4 5.79998C5.41115 5.05834 4 5.76391 4 6.99998V17C4 18.236 5.41115 18.9416 6.4 18.2L12 14V17C12 18.236 13.4111 18.9416 14.4 18.2L21.0667 13.2C21.8667 12.6 21.8667 11.4 21.0667 10.8Z" fill="currentColor"/>
</svg>

<svg width="24" height="24" fill="none" xmlns="http://www.w3.org/2000/svg"><path fill-rule="evenodd" clip-rule="evenodd" d="M21.067 10.8l-6.667-5C13.411 5.058 12 5.764 12 7v3L6.4 5.8C5.411 5.058 4 5.764 4 7v10c0 1.236 1.411 1.942 2.4 1.2L12 14v3c0 1.236 1.411 1.942 2.4 1.2l6.667-5c.8-.6.8-1.8 0-2.4z" fill="currentColor"/></svg>
